X: 102
T: No_190_Crawfish_Dance_Song_(a).krn
N: Derived from No_190_Crawfish_Dance_Song_(a).krn
%%abc-version 2.0
%%abcx-abcm2ps-target-version 5.9.1 (29 Sep 2008)
%%abc-creator hum2abc beta
%%abcx-conversion-date 2019/03/15 08:38:45
%%humdrum-veritas 16612987
%%humdrum-veritas-data 296630836
%%linebreak <none>
%%barnumbers 0
L: 1/8
M: 5/8
K: E clef=bass
[K:clef=bass][M:5/8]E,/E,/G,G,(G,E,) [I:setbarnb 2]||  
[M:4/8]F,/F,/ F,F,2 ||  
[M:5/8]E,/E,/E,G,(G,E,) ||  
[M:4/8]E,/E,/ E,E,2 ||  
[M:5/8]F,/F,/E,F,(E,C,) | 
E,/E,/E,E, z C, ||  
[M:4/8]E,2E,/E,/ C, ||  
[M:5/8]E,3z C, ||  
[M:4/8]E,2E,/E,/ C,/ z/ ||  
[M:3/8]E,3 :|]  
[M:2/4]E,/E,/E,E,2 | 
G,/E,3/E,2 | 
G,/E,/E,E,2 | 
G,/E,3/E,2 | 
G,/E,/E,E,2 |]  



